assets/img/braze_icons/x.svg

<svg fill="none" height="24" viewBox="0 0 24 24" width="24" xmlns="http://www.w3.org/2000/svg"><path d="m17.7071 7.70711c.3905-.39053.3905-1.02369 0-1.41422-.3905-.39052-1.0237-.39052-1.4142 0l-4.2929 4.29291-4.29289-4.29291c-.39053-.39052-1.02369-.39052-1.41422 0-.39052.39053-.39052 1.02369 0 1.41422l4.29291 4.29289-4.29291 4.2929c-.39052.3905-.39052 1.0237 0 1.4142.39053.3905 1.02369.3905 1.41422 0l4.29289-4.2929 4.2929 4.2929c.3905.3905 1.0237.3905 1.4142 0s.3905-1.0237 0-1.4142l-4.2929-4.2929z" fill="#801ed7"/></svg>

<svg width="24" height="24" viewBox="0 0 24 24" fill="none" xmlns="http://www.w3.org/2000/svg">
<path d="M17.7071 7.70711C18.0976 7.31658 18.0976 6.68342 17.7071 6.29289C17.3166 5.90237 16.6834 5.90237 16.2929 6.29289L12 10.5858L7.70711 6.29289C7.31658 5.90237 6.68342 5.90237 6.29289 6.29289C5.90237 6.68342 5.90237 7.31658 6.29289 7.70711L10.5858 12L6.29289 16.2929C5.90237 16.6834 5.90237 17.3166 6.29289 17.7071C6.68342 18.0976 7.31658 18.0976 7.70711 17.7071L12 13.4142L16.2929 17.7071C16.6834 18.0976 17.3166 18.0976 17.7071 17.7071C18.0976 17.3166 18.0976 16.6834 17.7071 16.2929L13.4142 12L17.7071 7.70711Z" fill="#801ED7"/>
</svg>
